X: 6756
T: Chanson D'Automne
R: waltz
M: 3/4
K: Aminor
|:EE|E6|A6|c6|e6|e6|d4A2|c6|B6|
A6|c6|e6|g6|(g6|g2) g2f2|(e6|e6)|
c'6|b6|b6|a6|a6|g4e2|c6|d6|
e6|^d6|e6|f2A2B2|c6|B6|(A6|A4):|
ag|:f3ed2|d^c de fa|e3d (c2|c2) e2c2|
d3c (B2|B2)c2B2|1 A^G AB cd|eA Bc de:|2 (A6|A4)||
|:EE|ECA, ECA,|AEC AEC|cAE cAE|ecA ecA|
ecF ecF|dBE dBE|cAE cAE|B^GD BGD|
AEC AEC|cAE cAE|ecA ecA|aec aec|
gdB gdB|fdB fdB|eB^G eBG|eB^G eBG|
c'ae c'ae|b^gd bgd|b^gd bgd|aec aec|
aec aec|gec ecA|cAF cAF|dAF dAF|
ecA ecA|^dcA dcA|ecA ecA|f2A2B2|cde dce|dcB dcB|Ace Ace|a4:|

